src/images/bg-button-sm.svg

<svg width="129" height="40" fill="none" xmlns="http://www.w3.org/2000/svg">
  <path d="M2.969 5V3h1.969V1h119.124v2h1.969v2H128v30h-1.969v2h-1.969v2H4.938v-2H2.969v-2H1V5h1.969z" fill="#DBE0E7" stroke="#141020" stroke-width="2"/>
  <path d="M4.968 7V5h1.968V3h115.128v2h1.968v2H126v26h-1.968v2h-1.968v2H6.936v-2H4.968v-2H3V7h1.968z" stroke="#fff" stroke-width="2"/>
</svg>

<svg width="129" height="40" viewBox="0 0 129 40" fill="none" xmlns="http://www.w3.org/2000/svg">
  <path d="M2.96899 5V3H4.93798V1H124.062V3H126.031V5H128V35H126.031V37H124.062V39H4.93798V37H2.96899V35H1V5H2.96899Z" fill="#DBE0E7" stroke="#141020" stroke-width="2"/>
  <path d="M4.968 7V5H6.936V3H122.064V5H124.032V7H126V33H124.032V35H122.064V37H6.936V35H4.968V33H3V7H4.968Z" stroke="white" stroke-width="2"/>
</svg>
